assets/images/avatars/group/default-avatar_17.svg

<svg xmlns="http://www.w3.org/2000/svg" fill="none" viewBox="0 0 40 40"><rect width="40" height="40" fill="#712A76" rx="20"/><path fill="#FBCCFF" d="M26.2502 14.5C26.2502 15.8807 25.1309 17 23.7502 17C22.3695 17 21.2502 15.8807 21.2502 14.5C21.2502 13.1193 22.3695 12 23.7502 12C25.1309 12 26.2502 13.1193 26.2502 14.5Z"/><path fill="#FBCCFF" d="M23.25 25C23.25 26 22.7115 26.9892 21.2501 26.9892C20.0821 26.9892 18.4959 26.9892 16.7488 26.9892C15.0017 26.9892 13.4156 26.9892 12.2476 26.9892C10.7557 26.9892 10.2495 25.9879 10.25 25C10.25 21.9879 13.25 19.9892 16.7488 19.9892C20.2476 19.9892 23.25 22 23.25 25Z"/><path fill="#FBCCFF" d="M28.25 25C29.6969 25 30.25 23.9772 30.25 23C30.25 19.9892 27.2117 18 23.5411 18C22.5254 18 21.3811 18.2853 20.7942 18.6938C20.2072 19.1023 20.2986 19.5536 20.7942 19.7976C23.3267 21.0451 24.258 22.903 24.258 24.016C24.258 24.6503 24.6882 25 25.2424 25H28.25Z"/><path fill="#FBCCFF" d="M19.2502 16.5C19.2502 17.8807 18.1309 19 16.7502 19C15.3695 19 14.2502 17.8807 14.2502 16.5C14.2502 15.1193 15.3695 14 16.7502 14C18.1309 14 19.2502 15.1193 19.2502 16.5Z"/></svg>

<svg xmlns="http://www.w3.org/2000/svg" fill="none" viewBox="0 0 40 40"><rect width="40" height="40" fill="#712a76" rx="20"/><path fill="#fbccff" d="M26.25 14.5a2.5 2.5 0 1 1-5 0 2.5 2.5 0 0 1 5 0m-3 10.5c0 1-.538 1.99-2 1.99h-9.002c-1.492 0-1.998-1.002-1.998-1.99 0-3.012 3-5.01 6.499-5.01S23.25 22 23.25 25"/><path fill="#fbccff" d="M28.25 25c1.447 0 2-1.023 2-2 0-3.01-3.038-5-6.709-5-1.016 0-2.16.285-2.747.694-.587.408-.495.86 0 1.104 2.533 1.247 3.464 3.105 3.464 4.218 0 .634.43.984.984.984zm-9-8.5a2.5 2.5 0 1 1-5 0 2.5 2.5 0 0 1 5 0"/></svg>
